X:1
T:E le celesti sfere
T:Rinaldo del Mel
T:Source : Canzonette a la Romana a tre voci---Antwerp---P.Phalesius Jr---1607. Editor André Vierendeels (22/01/17).
T:Notes : Original clefs :   G2, C1, C3                      
T:E le celesti sfere
T:©
T:©
T:©
T:©
C:Rinaldo del Mel
Z:©
%%score [ 1 2 3 ]
L:1/8
Q:1/4=106
M:4/4
K:F
V:1 treble nm="Soprano 1" snm="S 1"
V:2 treble nm="Soprano 2" snm="S 2"
V:3 treble-8 nm="Tenor" snm="T"
V:1
 c4 d2 d2 | c2 c2 f4 | e8 | z4 c2 c2 | f2 ed e2 dc | d3 d c4 | z4 A2 A2 | d2 cB c2 BA | B3 B A4 | %9
w: E le ce-|le- sti sfe-|re,|men- tre|gi- * * * * *|* ra- no,|men- tre|gi- * * * * *|* ra- no|
 z2 c4 d2- | d2 d2 c2 c2 | B4 A2 A2 | A2 A2 B2 B2 | c4 d4 | c4 B4 | A2 GF G4 | F8 :: c6 A2 | %18
w: e- ter-|* no'i lor splen-|do- re, e|mo- stran l'al- te|pom- pe'i|chiar' ho-|no- * * *|ri,|spi- ran|
 d4 Bcde | f2 f2 e4 | d8 | z4 f4- | f2 e2 e4- | e2 dc d4- | d4 ^c4 | z4 d4- | d2 c2 c4- | %27
w: dol- ci _ _ _|_ con- cen-|ti,|ne'i|_ dis- cor-|* di lor mo-|* ti,|ne'i|_ dis- cor-|
 c2 BA B4- | B2 A2 A4- | A2 GF G4 | A4 z2 ^c2 | d2 ^cc d2 e2 | f3 e d3 c | B4 A4 | G8 | A8 :| %36
w: * di do- lor|_ _ mo-||ti, hor|pe- sti'hor- pre- sti, hor|len- * * *||ti.|_|
V:2
 A4 B2 B2 | A2 c4 =B2 | c4 G2 G2 | A2 GF G2 A2- | AGAB c3 c | =B4 z4 | G2 G2 c2 BA | B2 AG A2 GF | %8
w: E le ce-|le- sti sfe-|re, men- tre|gi- * * * *|* * * * * ra-|no,|men- tre gi- * *||
 G3 G F4 | z2 E2 F4 | D2 B4 A2 | G4 ^F2 F2 | ^F2 F2 G2 B2 | A4 B4 | A2 G2 F4- | F2 ED E4 | F8 :: %17
w: * ra- no|e- ter-|no'i lor splen-|do- re, e|mo- stran l'al- te|pom- pe'i|chiar' ho- no-||ri,|
 z4 A4- | A2 A2 B4 | A2 d4 ^c2 | d4 B4- | B2 A2 A4- | A2 GF G4 | D8 | z4 G4- | G2 F2 F4- | %26
w: spi-|* ran dol-|ci con- cen-|ti, ne'i|_ dis- cor-|* di lor mo-||ne'i|_ dis- cor-|
 F2 ED E4 | D8 | F6 E2 | E2 DC D4 | E4 z2 E2 | F2 EE F2 G2 | A3 G F3 E | D3 E F4- | F2 ED E4 | %35
w: * di lor mo-|ti,|ne'i dis-|cor do lor mo-|ti hor|pre- sti'hor pre- sti, hor|len- * * *|||
 F8 :| %36
w: ti|
V:3
 f4 d2 B2 | f3 e d4 | c4 c2 c2 | f2 ed e2 dc | d3 d c4 | G2 G2 c2 BA | B2 AG A2 GF | G3 G F4 | %8
w: E le ce-|le- sti sfe-|re, men- tre|gi- * * * * *|* ra- no,|men- tre gi- * *||* ra- no|
 z4 F4 | c4 A2 B2- | Bcde f2 f2 | g4 d2 d2 | d2 d2 g2 g2 | f4 B4 | c4 d4 | c8 | F8 :: z4 f4- | %18
w: e-|ter- no'i lor|_ _ _ _ _ splen-|do- re, e|mo- stran l'al- te|pom- pe'i|chiar' ho-|no-|ri,|Spi-|
 f2 d2 g4 | f2 d2 A4 | d8- | d8 | z4 g4- | g2 f2 f4- | f2 ed e4 | d8 | z8 | z4 d4- | d2 c2 c4- | %29
w: * ran dol-|ci con- cen-|ti,|_|ne'i|_ dis- cor-|* di lor mo-|ti,||ne'i|_ dis- cor|
 c2 BA B4 | A4 z2 A2 | d2 AA d2 c2 | F8 | G4 A4 | B4 c4 | F8 :| %36
w: _ di lor mo-|ti, hor|pre- sti'hor pres- ti hor|len-|||ti.|

